X: 282
M: C
L: 1/8
K: D
(de).f.g (af).e.d | cdef gece | (de).f.g (af).e.d | Aaeg fdde |
(de).f.g (af).e.d | cdef gece | afge fdec | dBAG FDD |]


